X:495
T:To the Greenwood Gang wi' me. Roose.0495
M:C
L:1/8
Q:1/4=100
B:J.Roose MS, Manchester 1850
Z:Village Music Project. Ruairidh Greig.2019
K:D
A2|d>e"sic"f> A/ B>cd> B/|A<F ED d3e|f<d d>e/f//B2 g>f|
(f2e2)z2A2|d>ef> A/ B>cd> B/|A<F ED d3e|f<d d>e/f//A2f>e|
(e4d2)c>d|e<c B>cA2d>e|f<d c>dB3c|d>e f<b f<d c>d|
{d2}B4z2B>c|d>e d<A B<G F>G|E2e>d dc B>A|d<f A>B A<F E>F|
D4F<A A<d|d>e ff G<B B<e|e<fg2g2e>f&z2 e6|g>e f<^d e<B e>f|
gf ed dc B>A|d<f a>b a<f e>f|{e2}d6e>f|g<e f<^d d<B e>f|
gfed dcBA|d<f a>b a<f e>f|{e2}d4:||

